img/icons/mentor.svg

<svg width="40" height="48" viewBox="0 0 40 48" fill="none" xmlns="http://www.w3.org/2000/svg">
<g clip-path="url(#clip0)">
<path fill-rule="evenodd" clip-rule="evenodd" d="M37.2 36H4.796C3.922 36 3.109 36.254 2.4 36.668V4.8C2.4 3.478 3.478 2.4 4.796 2.4H37.2V36ZM37.2 40.8H8.4V43.2H37.2V45.6H4.796C4.36824 45.5979 3.94887 45.4811 3.58161 45.2618C3.21435 45.0425 2.91266 44.7286 2.708 44.353C2.50834 43.997 2.40236 43.5961 2.4 43.188V40.812C2.39946 40.1749 2.65121 39.5635 3.10021 39.1115C3.54921 38.6595 4.15891 38.4037 4.796 38.4H37.2V40.8ZM37.2 0H39.6V48H4.796C2.881 48 1.242 46.872 0.474 45.244C0.165128 44.6067 0.00315106 43.9082 0 43.2L0 4.8C0 2.15 2.158 0 4.796 0H37.2ZM14.4 15.6L20.4 12L26.4 15.6V22.8L20.4 26.4L14.4 22.8V15.6V15.6ZM13.165 24.858L19.165 28.458C19.538 28.6819 19.9649 28.8001 20.4 28.8001C20.8351 28.8001 21.262 28.6819 21.635 28.458L27.635 24.858C27.9903 24.6447 28.2843 24.343 28.4884 23.9824C28.6926 23.6217 28.7999 23.2144 28.8 22.8V15.6C28.8 14.758 28.357 13.975 27.635 13.542L21.635 9.942C21.262 9.71812 20.8351 9.59986 20.4 9.59986C19.9649 9.59986 19.538 9.71812 19.165 9.942L13.165 13.542C12.8097 13.7553 12.5157 14.057 12.3116 14.4176C12.1074 14.7783 12.0001 15.1856 12 15.6V22.8C12 23.642 12.443 24.425 13.165 24.858V24.858Z" fill="#4462FF"/>
</g>
<defs>
<clipPath id="clip0">
<rect width="40" height="48" fill="white"/>
</clipPath>
</defs>
</svg>

<svg width="40" height="48" viewBox="0 0 40 48" xmlns="http://www.w3.org/2000/svg"><title>BOOK</title><path d="M37.2 36H4.796c-.874 0-1.687.254-2.396.668V4.8c0-1.322 1.078-2.4 2.396-2.4H37.2V36zm0 4.8H8.4v2.4h28.8v2.4H4.796a2.391 2.391 0 0 1-2.088-1.247 2.41 2.41 0 0 1-.308-1.165v-2.376A2.41 2.41 0 0 1 4.796 38.4H37.2v2.4zm0-40.8h2.4v48H4.796c-1.915 0-3.554-1.128-4.322-2.756A4.735 4.735 0 0 1 0 43.2V4.8C0 2.15 2.158 0 4.796 0H37.2zM14.4 15.6l6-3.6 6 3.6v7.2l-6 3.6-6-3.6v-7.2zm-1.235 9.258l6 3.6a2.4 2.4 0 0 0 2.47 0l6-3.6A2.401 2.401 0 0 0 28.8 22.8v-7.2c0-.842-.443-1.625-1.165-2.058l-6-3.6a2.4 2.4 0 0 0-2.47 0l-6 3.6A2.401 2.401 0 0 0 12 15.6v7.2c0 .842.443 1.625 1.165 2.058z" fill="#8C43FF" fill-rule="evenodd"/></svg>
